name_svg/Digitus.svg

<?xml version="1.0" encoding="UTF-8"?>
<svg id="_레이어_2" data-name="레이어 2" xmlns="http://www.w3.org/2000/svg" viewBox="0 0 747.03 300.93">
  <g id="kerning">
    <g>
      <g>
        <path d="M250.07,203.57c-14,0-23.36-8.76-23.36-34.8v-99.36h0v-16.25l-46.89,34.68c-1.1.82-.16,2.52,1.13,2.04,3.65-1.39,8.11-4.24,12.81-6.78,6.81-3.67,15.07,1.33,15.07,9.06v78.36c0,21.13-7.28,33.05-18.72,33.05,0,0-4.74-.37-7.42,0-6.39.88-18.66,7.69-7.76,7.69h88.51v-7.69h-13.36Z"/>
        <path d="M205.03,26.99v17.13l20.92-15.34V2.69l-13.69,10.04c-4.54,3.33-7.22,8.62-7.22,14.26Z"/>
      </g>
      <g>
        <path d="M440.73,203.57c-14,0-23.36-8.76-23.36-34.8v-99.36h0v-16.25l-46.89,34.68c-1.1.82-.16,2.52,1.13,2.04,3.65-1.39,8.11-4.24,12.81-6.78,6.81-3.67,15.07,1.33,15.07,9.06v78.36c0,21.13-7.28,33.05-18.72,33.05,0,0-4.74-.37-7.42,0-6.39.88-18.66,7.69-7.76,7.69h88.51v-7.69h-13.36Z"/>
        <path d="M395.69,26.99v17.13l20.92-15.34V2.69l-13.69,10.04c-4.54,3.33-7.22,8.62-7.22,14.26Z"/>
      </g>
      <path d="M528.84,164.85v5.4c0,23.48-28.27,33.31-28.27,33.31h-.54c-10.77,0-19.75-13.17-19.75-22.52v-98.98l39.45-27.21v-6.07l-39.45,27.22V18.94h0V2.69l-46.89,34.68c-1.1.82-.16,2.52,1.13,2.04,3.65-1.39,8.11-4.24,12.81-6.78,6.81-3.67,15.07,1.33,15.07,9.06v46.64l-17.97,12.39v6.07l17.97-12.39v56.41h.01v30.43c0,16.22,9.19,30.02,24.46,30.02h16.65c22.18-9.25,43.23-22.03,43.23-47.56v-11.19l-17.89,12.34Z"/>
      <path d="M747.03,122.09v-11.75c0-18.19-7.36-25.4-17.89-19.97l-47.57,32.82-18.09,12.24v25.83c0,15.85,17.79,25.19,30.83,16.19l34.82-24.02v18.2c0,26.84-19.78,33.31-19.78,33.31h-6.57c-9.99,0-18.21-7.5-19.39-17.17h-17.92c1.74,13.88,10.51,24.87,24.13,24.87h20.51c22.18-9.25,36.91-17.95,36.91-47.56v-30.06l-17.89,12.34-31.92,22.02c-6.62,4.57-15.65-.17-15.65-8.22v-31.45l29.64-20.63c7.57-5.27,17.93-4.46,17.93,16.05v9.32s17.89-12.35,17.89-12.35Z"/>
      <path d="M161.5,5.09c-3.14-5.32-8.27-6.54-14.52-3.33L.42,102.64c-.94.64-.17,2.1.89,1.68,6.82-2.73,16.59-8.49,26.51-12.07,8.62-3.11,17.68,2.82,18.54,11.69l.07,66.58c0,18.94-9.28,33.05-20.72,33.05,0,0-8.13-.37-10.81,0-6.39.88-18.66,7.69-7.76,7.69h114.99c22.18-9.25,42.75-17.95,42.75-47.56V21.73c0-7.41-1.22-12.99-3.38-16.64ZM146.99,170.26c0,26.84-25.62,33.31-25.62,33.31h-22.45c-.07,0-.13,0-.2,0h0s-9.03,0-9.03,0c-14,0-25.36-10.61-25.36-34.8,0,0,0-90.15,0-103.52l66.51-45.88c3.49-1.87,7.33-2.36,10.39-.29,1.26.85,2.39,2.14,3.3,3.95,1.51,2.97,2.44,7.34,2.44,13.49v133.74Z"/>
      <path d="M662.73,204.93c-18.12,0-23.36-8.76-23.36-34.8h-.02v-88.1s-46.9,34.68-46.9,34.68c-1.1.82-.16,2.52,1.13,2.04,3.65-1.39,8.11-4.24,12.81-6.78,6.81-3.67,15.07,1.33,15.07,9.06l.02,50.58c0,26.84-25.62,33.31-25.62,33.31h-2.51c-5.31-.39-20.02-7.36-20.02-42.69v-39.27l-18.1,12.49v29.96c0,33.18,22.59,47.2,40.48,47.2,0,0,13.71-3.84,25.77-13.43,0,0,2.32,13.43,14.37,13.43h30.09v-7.69h-3.2Z"/>
      <path d="M351.26,110.34c0-7.41-1.22-12.99-3.38-16.64-3.14-5.32-8.27-6.54-14.52-3.33l-66.25,45.73v29.96c0,33.18,22.59,47.2,40.49,47.2,0,0,13.71-3.84,25.77-13.43v60.1c0,26.84-25.62,33.31-25.62,33.31h-2.51c-5.31-.39-20.02-7.36-20.02-42.69v-4.05l-17.9,12.35c2.2,29.51,23.34,42.09,40.29,42.09,0,0,43.66-12.21,43.66-47.56v-22.88h0v-120.15ZM307.75,205.56h-2.51c-5.31-.39-20.23-7.36-20.23-42.69v-32.68l32.22-22.22c3.49-1.87,7.33-2.36,10.39-.29,1.26.85,2.39,2.14,3.3,3.95,1.51,2.97,2.44,7.34,2.44,13.49v47.13c0,26.84-25.62,33.31-25.62,33.31Z"/>
    </g>
  </g>
</svg>

<svg width="748" height="301" viewBox="0 0 748 301" fill="none" xmlns="http://www.w3.org/2000/svg">
<g clip-path="url(#clip0_1_2)">
<path d="M250.07 203.57C236.07 203.57 226.71 194.81 226.71 168.77V69.41V53.16L179.82 87.84C178.72 88.66 179.66 90.36 180.95 89.88C184.6 88.49 189.06 85.64 193.76 83.1C200.57 79.43 208.83 84.43 208.83 92.16V170.52C208.83 191.65 201.55 203.57 190.11 203.57C190.11 203.57 185.37 203.2 182.69 203.57C176.3 204.45 164.03 211.26 174.93 211.26H263.44V203.57H250.08H250.07Z" fill="white"/>
<path d="M205.03 26.99V44.12L225.95 28.78V2.69L212.26 12.73C207.72 16.06 205.04 21.35 205.04 26.99H205.03Z" fill="white"/>
<path d="M440.73 203.57C426.73 203.57 417.37 194.81 417.37 168.77V69.41V53.16L370.48 87.84C369.38 88.66 370.32 90.36 371.61 89.88C375.26 88.49 379.72 85.64 384.42 83.1C391.23 79.43 399.49 84.43 399.49 92.16V170.52C399.49 191.65 392.21 203.57 380.77 203.57C380.77 203.57 376.03 203.2 373.35 203.57C366.96 204.45 354.69 211.26 365.59 211.26H454.1V203.57H440.74H440.73Z" fill="white"/>
<path d="M395.69 26.99V44.12L416.61 28.78V2.69L402.92 12.73C398.38 16.06 395.7 21.35 395.7 26.99H395.69Z" fill="white"/>
<path d="M528.84 164.85V170.25C528.84 193.73 500.57 203.56 500.57 203.56H500.03C489.26 203.56 480.28 190.39 480.28 181.04V82.06L519.73 54.85V48.78L480.28 76V18.94V2.69L433.39 37.37C432.29 38.19 433.23 39.89 434.52 39.41C438.17 38.02 442.63 35.17 447.33 32.63C454.14 28.96 462.4 33.96 462.4 41.69V88.33L444.43 100.72V106.79L462.4 94.4V150.81H462.41V181.24C462.41 197.46 471.6 211.26 486.87 211.26H503.52C525.7 202.01 546.75 189.23 546.75 163.7V152.51L528.86 164.85H528.84Z" fill="white"/>
<path d="M747.03 122.09V110.34C747.03 92.15 739.67 84.94 729.14 90.37L681.57 123.19L663.48 135.43V161.26C663.48 177.11 681.27 186.45 694.31 177.45L729.13 153.43V171.63C729.13 198.47 709.35 204.94 709.35 204.94H702.78C692.79 204.94 684.57 197.44 683.39 187.77H665.47C667.21 201.65 675.98 212.64 689.6 212.64H710.11C732.29 203.39 747.02 194.69 747.02 165.08V135.02L729.13 147.36L697.21 169.38C690.59 173.95 681.56 169.21 681.56 161.16V129.71L711.2 109.08C718.77 103.81 729.13 104.62 729.13 125.13V134.45L747.02 122.1L747.03 122.09Z" fill="white"/>
<path d="M161.5 5.09C158.36 -0.229997 153.23 -1.45 146.98 1.76L0.420005 102.64C-0.519995 103.28 0.250005 104.74 1.31 104.32C8.13 101.59 17.9 95.83 27.82 92.25C36.44 89.14 45.5 95.07 46.36 103.94L46.43 170.52C46.43 189.46 37.15 203.57 25.71 203.57C25.71 203.57 17.58 203.2 14.9 203.57C8.51 204.45 -3.75999 211.26 7.14 211.26H122.13C144.31 202.01 164.88 193.31 164.88 163.7V21.73C164.88 14.32 163.66 8.74 161.5 5.09ZM146.99 170.26C146.99 197.1 121.37 203.57 121.37 203.57H98.92C98.85 203.57 98.79 203.57 98.72 203.57H89.69C75.69 203.57 64.33 192.96 64.33 168.77C64.33 168.77 64.33 78.62 64.33 65.25L130.84 19.37C134.33 17.5 138.17 17.01 141.23 19.08C142.49 19.93 143.62 21.22 144.53 23.03C146.04 26 146.97 30.37 146.97 36.52V170.26H146.99Z" fill="white"/>
<path d="M662.73 204.93C644.61 204.93 639.37 196.17 639.37 170.13H639.35V82.03L592.45 116.71C591.35 117.53 592.29 119.23 593.58 118.75C597.23 117.36 601.69 114.51 606.39 111.97C613.2 108.3 621.46 113.3 621.46 121.03L621.48 171.61C621.48 198.45 595.86 204.92 595.86 204.92H593.35C588.04 204.53 573.33 197.56 573.33 162.23V122.96L555.23 135.45V165.41C555.23 198.59 577.82 212.61 595.71 212.61C595.71 212.61 609.42 208.77 621.48 199.18C621.48 199.18 623.8 212.61 635.85 212.61H665.94V204.92H662.74L662.73 204.93Z" fill="white"/>
<path d="M351.26 110.34C351.26 102.93 350.04 97.35 347.88 93.7C344.74 88.38 339.61 87.16 333.36 90.37L267.11 136.1V166.06C267.11 199.24 289.7 213.26 307.6 213.26C307.6 213.26 321.31 209.42 333.37 199.83V259.93C333.37 286.77 307.75 293.24 307.75 293.24H305.24C299.93 292.85 285.22 285.88 285.22 250.55V246.5L267.32 258.85C269.52 288.36 290.66 300.94 307.61 300.94C307.61 300.94 351.27 288.73 351.27 253.38V230.5V110.35L351.26 110.34ZM307.75 205.56H305.24C299.93 205.17 285.01 198.2 285.01 162.87V130.19L317.23 107.97C320.72 106.1 324.56 105.61 327.62 107.68C328.88 108.53 330.01 109.82 330.92 111.63C332.43 114.6 333.36 118.97 333.36 125.12V172.25C333.36 199.09 307.74 205.56 307.74 205.56H307.75Z" fill="white"/>
</g>
<defs>
<clipPath id="clip0_1_2">
<rect width="747.03" height="300.93" fill="white"/>
</clipPath>
</defs>
</svg>
